X: 1
T: Oyster Girl, The
M: 6/8
L: 1/8
R: jig
K: Gmaj
B2c|:ded B2G|A2F DEF|GAB c2A|d2B ABc|
ded B2d|g2d B2d|edB dBA|1G3 B2c:|2 G3 G2A||
B2B B2 B|B2B BcB|A2A ABc|d3 B2c|
ded B2d|g2d  B2d|edB dBG|1G3 G2A:|2G3 B2c||
